images/16757861.svg

<?xml version="1.0" encoding="UTF-8"?>
<svg xmlns="http://www.w3.org/2000/svg" xmlns:xlink="http://www.w3.org/1999/xlink" width="300pt" height="300pt" viewBox="0 0 300 300" version="1.1">
<defs>
<g>
<symbol overflow="visible" id="glyph0-0">
<path style="stroke:none;" d="M 0.546875 1.9375 L 0.546875 -7.75 L 6.046875 -7.75 L 6.046875 1.9375 Z M 1.171875 1.328125 L 5.4375 1.328125 L 5.4375 -7.140625 L 1.171875 -7.140625 Z M 1.171875 1.328125 "/>
</symbol>
<symbol overflow="visible" id="glyph0-1">
<path style="stroke:none;" d="M 4.328125 -7.28125 C 3.546875 -7.28125 2.921875 -6.984375 2.453125 -6.390625 C 1.992188 -5.804688 1.765625 -5.007812 1.765625 -4 C 1.765625 -2.988281 1.992188 -2.1875 2.453125 -1.59375 C 2.921875 -1.007812 3.546875 -0.71875 4.328125 -0.71875 C 5.117188 -0.71875 5.742188 -1.007812 6.203125 -1.59375 C 6.660156 -2.1875 6.890625 -2.988281 6.890625 -4 C 6.890625 -5.007812 6.660156 -5.804688 6.203125 -6.390625 C 5.742188 -6.984375 5.117188 -7.28125 4.328125 -7.28125 Z M 4.328125 -8.171875 C 5.453125 -8.171875 6.351562 -7.789062 7.03125 -7.03125 C 7.707031 -6.28125 8.046875 -5.269531 8.046875 -4 C 8.046875 -2.738281 7.707031 -1.726562 7.03125 -0.96875 C 6.351562 -0.21875 5.453125 0.15625 4.328125 0.15625 C 3.203125 0.15625 2.300781 -0.21875 1.625 -0.96875 C 0.957031 -1.71875 0.625 -2.726562 0.625 -4 C 0.625 -5.269531 0.957031 -6.28125 1.625 -7.03125 C 2.300781 -7.789062 3.203125 -8.171875 4.328125 -8.171875 Z M 4.328125 -8.171875 "/>
</symbol>
</g>
</defs>
<g id="surface47821">
<rect x="0" y="0" width="300" height="300" style="fill:rgb(100%,100%,100%);fill-opacity:1;stroke:none;"/>
<path style="fill:none;stroke-width:1.2;stroke-linecap:butt;stroke-linejoin:miter;stroke:rgb(0%,0%,0%);stroke-opacity:1;stroke-miterlimit:10;" d="M 115.550781 225.117188 L 109.394531 200.078125 "/>
<path style="fill:none;stroke-width:1.2;stroke-linecap:butt;stroke-linejoin:miter;stroke:rgb(0%,0%,0%);stroke-opacity:1;stroke-miterlimit:10;" d="M 110.242188 197.164062 L 97.859375 193.570312 "/>
<path style="fill:none;stroke-width:1.2;stroke-linecap:butt;stroke-linejoin:miter;stroke:rgb(100%,0%,0%);stroke-opacity:1;stroke-miterlimit:10;" d="M 97.859375 193.570312 L 85.480469 189.976562 "/>
<path style="fill:none;stroke-width:1.2;stroke-linecap:butt;stroke-linejoin:miter;stroke:rgb(0%,0%,0%);stroke-opacity:1;stroke-miterlimit:10;" d="M 108.550781 202.992188 L 96.167969 199.398438 "/>
<path style="fill:none;stroke-width:1.2;stroke-linecap:butt;stroke-linejoin:miter;stroke:rgb(100%,0%,0%);stroke-opacity:1;stroke-miterlimit:10;" d="M 96.167969 199.398438 L 83.789062 195.800781 "/>
<path style="fill:none;stroke-width:1.2;stroke-linecap:butt;stroke-linejoin:miter;stroke:rgb(0%,0%,0%);stroke-opacity:1;stroke-miterlimit:10;" d="M 109.394531 200.078125 L 118.699219 191.152344 "/>
<path style="fill:none;stroke-width:1.2;stroke-linecap:butt;stroke-linejoin:miter;stroke:rgb(100%,0%,0%);stroke-opacity:1;stroke-miterlimit:10;" d="M 118.699219 191.152344 L 128.003906 182.226562 "/>
<path style=" stroke:none;fill-rule:nonzero;fill:rgb(100%,100%,100%);fill-opacity:1;" d="M 75.632812 186.390625 L 84.632812 186.390625 L 84.632812 199.390625 L 75.632812 199.390625 Z M 75.632812 186.390625 "/>
<g style="fill:rgb(100%,0%,0%);fill-opacity:1;">
  <use xlink:href="#glyph0-1" x="75.632812" y="196.291992"/>
</g>
<path style="fill:none;stroke-width:1.2;stroke-linecap:butt;stroke-linejoin:miter;stroke:rgb(100%,0%,0%);stroke-opacity:1;stroke-miterlimit:10;" d="M 128.003906 182.226562 L 124.925781 169.707031 "/>
<path style="fill:none;stroke-width:1.2;stroke-linecap:butt;stroke-linejoin:miter;stroke:rgb(0%,0%,0%);stroke-opacity:1;stroke-miterlimit:10;" d="M 124.925781 169.707031 L 121.847656 157.1875 "/>
<path style=" stroke:none;fill-rule:nonzero;fill:rgb(100%,100%,100%);fill-opacity:1;" d="M 124.003906 175.726562 L 133.003906 175.726562 L 133.003906 188.726562 L 124.003906 188.726562 Z M 124.003906 175.726562 "/>
<g style="fill:rgb(100%,0%,0%);fill-opacity:1;">
  <use xlink:href="#glyph0-1" x="124.003906" y="185.62793"/>
</g>
<path style="fill:none;stroke-width:1.2;stroke-linecap:butt;stroke-linejoin:miter;stroke:rgb(0%,0%,0%);stroke-opacity:1;stroke-miterlimit:10;" d="M 121.847656 157.1875 L 97.085938 150 "/>
<path style="fill:none;stroke-width:1.2;stroke-linecap:butt;stroke-linejoin:miter;stroke:rgb(0%,0%,0%);stroke-opacity:1;stroke-miterlimit:10;" d="M 140.453125 139.339844 L 121.847656 157.1875 "/>
<path style="fill:none;stroke-width:1.2;stroke-linecap:butt;stroke-linejoin:miter;stroke:rgb(0%,0%,0%);stroke-opacity:1;stroke-miterlimit:10;" d="M 97.085938 150 L 90.929688 124.960938 "/>
<path style="fill:none;stroke-width:1.2;stroke-linecap:butt;stroke-linejoin:miter;stroke:rgb(0%,0%,0%);stroke-opacity:1;stroke-miterlimit:10;" d="M 90.929688 124.960938 L 109.535156 107.109375 "/>
<path style="fill:none;stroke-width:1.2;stroke-linecap:butt;stroke-linejoin:miter;stroke:rgb(0%,0%,0%);stroke-opacity:1;stroke-miterlimit:10;" d="M 66.167969 117.773438 L 90.929688 124.960938 "/>
<path style="fill:none;stroke-width:1.2;stroke-linecap:butt;stroke-linejoin:miter;stroke:rgb(0%,0%,0%);stroke-opacity:1;stroke-miterlimit:10;" d="M 109.535156 107.109375 L 103.382812 82.070312 "/>
<path style="fill:none;stroke-width:1.2;stroke-linecap:butt;stroke-linejoin:miter;stroke:rgb(0%,0%,0%);stroke-opacity:1;stroke-miterlimit:10;" d="M 109.535156 107.109375 L 134.296875 114.300781 "/>
<path style=" stroke:none;fill-rule:nonzero;fill:rgb(0%,0%,0%);fill-opacity:1;" d="M 109.535156 107.109375 L 131.292969 92.542969 L 124.992188 85.976562 Z M 109.535156 107.109375 "/>
<path style="fill:none;stroke-width:1.2;stroke-linecap:butt;stroke-linejoin:miter;stroke:rgb(0%,0%,0%);stroke-opacity:1;stroke-miterlimit:10;" d="M 103.382812 82.070312 L 78.617188 74.882812 "/>
<path style="fill:none;stroke-width:1.2;stroke-linecap:butt;stroke-linejoin:miter;stroke:rgb(0%,0%,0%);stroke-opacity:1;stroke-miterlimit:10;" d="M 99.214844 87.179688 L 79.402344 81.429688 "/>
<path style="fill:none;stroke-width:1.2;stroke-linecap:butt;stroke-linejoin:miter;stroke:rgb(0%,0%,0%);stroke-opacity:1;stroke-miterlimit:10;" d="M 78.617188 74.882812 L 60.011719 92.734375 "/>
<path style="fill:none;stroke-width:1.2;stroke-linecap:butt;stroke-linejoin:miter;stroke:rgb(0%,0%,0%);stroke-opacity:1;stroke-miterlimit:10;" d="M 60.859375 89.820312 L 48.476562 86.226562 "/>
<path style="fill:none;stroke-width:1.2;stroke-linecap:butt;stroke-linejoin:miter;stroke:rgb(100%,0%,0%);stroke-opacity:1;stroke-miterlimit:10;" d="M 48.476562 86.226562 L 36.097656 82.632812 "/>
<path style="fill:none;stroke-width:1.2;stroke-linecap:butt;stroke-linejoin:miter;stroke:rgb(0%,0%,0%);stroke-opacity:1;stroke-miterlimit:10;" d="M 59.167969 95.644531 L 46.785156 92.050781 "/>
<path style="fill:none;stroke-width:1.2;stroke-linecap:butt;stroke-linejoin:miter;stroke:rgb(100%,0%,0%);stroke-opacity:1;stroke-miterlimit:10;" d="M 46.785156 92.050781 L 34.402344 88.457031 "/>
<path style="fill:none;stroke-width:1.2;stroke-linecap:butt;stroke-linejoin:miter;stroke:rgb(0%,0%,0%);stroke-opacity:1;stroke-miterlimit:10;" d="M 60.011719 92.734375 L 66.167969 117.773438 "/>
<path style=" stroke:none;fill-rule:nonzero;fill:rgb(100%,100%,100%);fill-opacity:1;" d="M 26.25 79.042969 L 35.25 79.042969 L 35.25 92.042969 L 26.25 92.042969 Z M 26.25 79.042969 "/>
<g style="fill:rgb(100%,0%,0%);fill-opacity:1;">
  <use xlink:href="#glyph0-1" x="26.25" y="88.944336"/>
</g>
<path style="fill:none;stroke-width:1.2;stroke-linecap:butt;stroke-linejoin:miter;stroke:rgb(0%,0%,0%);stroke-opacity:1;stroke-miterlimit:10;" d="M 66.167969 117.773438 L 63.386719 143.40625 "/>
<path style="fill:none;stroke-width:1.2;stroke-linecap:butt;stroke-linejoin:miter;stroke:rgb(0%,0%,0%);stroke-opacity:1;stroke-miterlimit:10;" d="M 66.167969 117.773438 L 40.441406 119.484375 "/>
<path style="fill:none;stroke-width:1.2;stroke-linecap:butt;stroke-linejoin:miter;stroke:rgb(0%,0%,0%);stroke-opacity:1;stroke-miterlimit:10;" d="M 134.296875 114.300781 L 140.453125 139.339844 "/>
<path style="fill:none;stroke-width:1.2;stroke-linecap:butt;stroke-linejoin:miter;stroke:rgb(0%,0%,0%);stroke-opacity:1;stroke-miterlimit:10;" d="M 152.90625 96.449219 L 134.296875 114.300781 "/>
<path style="fill:none;stroke-width:1.2;stroke-linecap:butt;stroke-linejoin:miter;stroke:rgb(0%,0%,0%);stroke-opacity:1;stroke-miterlimit:10;" d="M 140.453125 139.339844 L 165.214844 146.527344 "/>
<path style=" stroke:none;fill-rule:nonzero;fill:rgb(0%,0%,0%);fill-opacity:1;" d="M 140.453125 139.339844 L 135.859375 153.027344 L 144.957031 153.054688 Z M 140.453125 139.339844 "/>
<path style="fill:none;stroke-width:1.2;stroke-linecap:butt;stroke-linejoin:miter;stroke:rgb(0%,0%,0%);stroke-opacity:1;stroke-miterlimit:10;" d="M 165.214844 146.527344 L 171.371094 171.566406 "/>
<path style="fill:none;stroke-width:1;stroke-linecap:butt;stroke-linejoin:miter;stroke:rgb(0%,0%,0%);stroke-opacity:1;stroke-miterlimit:10;" d="M 165.214844 146.527344 L 165.214844 146.527344 M 162.722656 148.195312 L 163.445312 148.949219 M 160.230469 149.863281 L 161.675781 151.371094 M 157.738281 151.535156 L 159.902344 153.792969 M 155.246094 153.203125 L 158.132812 156.214844 M 152.753906 154.871094 L 156.363281 158.632812 M 150.257812 156.542969 L 154.589844 161.054688 M 147.765625 158.210938 L 152.820312 163.476562 M 145.273438 159.878906 L 151.046875 165.898438 M 143.460938 161.09375 L 149.761719 167.660156 "/>
<path style="fill:none;stroke-width:1.2;stroke-linecap:butt;stroke-linejoin:miter;stroke:rgb(0%,0%,0%);stroke-opacity:1;stroke-miterlimit:10;" d="M 183.824219 128.675781 L 165.214844 146.527344 "/>
<path style="fill:none;stroke-width:1.2;stroke-linecap:butt;stroke-linejoin:miter;stroke:rgb(0%,0%,0%);stroke-opacity:1;stroke-miterlimit:10;" d="M 171.371094 171.566406 L 158.992188 167.972656 "/>
<path style="fill:none;stroke-width:1.2;stroke-linecap:butt;stroke-linejoin:miter;stroke:rgb(100%,0%,0%);stroke-opacity:1;stroke-miterlimit:10;" d="M 158.992188 167.972656 L 146.609375 164.378906 "/>
<path style="fill:none;stroke-width:1.2;stroke-linecap:butt;stroke-linejoin:miter;stroke:rgb(0%,0%,0%);stroke-opacity:1;stroke-miterlimit:10;" d="M 171.371094 171.566406 L 196.132812 178.753906 "/>
<path style=" stroke:none;fill-rule:nonzero;fill:rgb(100%,100%,100%);fill-opacity:1;" d="M 142.609375 157.878906 L 151.609375 157.878906 L 151.609375 170.878906 L 142.609375 170.878906 Z M 142.609375 157.878906 "/>
<g style="fill:rgb(100%,0%,0%);fill-opacity:1;">
  <use xlink:href="#glyph0-1" x="142.609375" y="167.780273"/>
</g>
<path style="fill:none;stroke-width:1.2;stroke-linecap:butt;stroke-linejoin:miter;stroke:rgb(0%,0%,0%);stroke-opacity:1;stroke-miterlimit:10;" d="M 193.1875 179.480469 L 196.265625 192 "/>
<path style="fill:none;stroke-width:1.2;stroke-linecap:butt;stroke-linejoin:miter;stroke:rgb(100%,0%,0%);stroke-opacity:1;stroke-miterlimit:10;" d="M 196.265625 192 L 199.34375 204.519531 "/>
<path style="fill:none;stroke-width:1.2;stroke-linecap:butt;stroke-linejoin:miter;stroke:rgb(0%,0%,0%);stroke-opacity:1;stroke-miterlimit:10;" d="M 199.078125 178.03125 L 202.15625 190.550781 "/>
<path style="fill:none;stroke-width:1.2;stroke-linecap:butt;stroke-linejoin:miter;stroke:rgb(100%,0%,0%);stroke-opacity:1;stroke-miterlimit:10;" d="M 202.15625 190.550781 L 205.234375 203.070312 "/>
<path style="fill:none;stroke-width:1.2;stroke-linecap:butt;stroke-linejoin:miter;stroke:rgb(0%,0%,0%);stroke-opacity:1;stroke-miterlimit:10;" d="M 196.132812 178.753906 L 205.4375 169.828125 "/>
<path style="fill:none;stroke-width:1.2;stroke-linecap:butt;stroke-linejoin:miter;stroke:rgb(100%,0%,0%);stroke-opacity:1;stroke-miterlimit:10;" d="M 205.4375 169.828125 L 214.742188 160.90625 "/>
<path style=" stroke:none;fill-rule:nonzero;fill:rgb(100%,100%,100%);fill-opacity:1;" d="M 198.289062 197.292969 L 207.289062 197.292969 L 207.289062 210.292969 L 198.289062 210.292969 Z M 198.289062 197.292969 "/>
<g style="fill:rgb(100%,0%,0%);fill-opacity:1;">
  <use xlink:href="#glyph0-1" x="198.289062" y="207.194336"/>
</g>
<path style="fill:none;stroke-width:1.2;stroke-linecap:butt;stroke-linejoin:miter;stroke:rgb(100%,0%,0%);stroke-opacity:1;stroke-miterlimit:10;" d="M 214.742188 160.90625 L 211.664062 148.386719 "/>
<path style="fill:none;stroke-width:1.2;stroke-linecap:butt;stroke-linejoin:miter;stroke:rgb(0%,0%,0%);stroke-opacity:1;stroke-miterlimit:10;" d="M 211.664062 148.386719 L 208.585938 135.867188 "/>
<path style=" stroke:none;fill-rule:nonzero;fill:rgb(100%,100%,100%);fill-opacity:1;" d="M 210.742188 154.40625 L 219.742188 154.40625 L 219.742188 167.40625 L 210.742188 167.40625 Z M 210.742188 154.40625 "/>
<g style="fill:rgb(100%,0%,0%);fill-opacity:1;">
  <use xlink:href="#glyph0-1" x="210.742188" y="164.307617"/>
</g>
<path style="fill:none;stroke-width:1.2;stroke-linecap:butt;stroke-linejoin:miter;stroke:rgb(0%,0%,0%);stroke-opacity:1;stroke-miterlimit:10;" d="M 208.585938 135.867188 L 183.824219 128.675781 "/>
<path style="fill:none;stroke-width:1.2;stroke-linecap:butt;stroke-linejoin:miter;stroke:rgb(0%,0%,0%);stroke-opacity:1;stroke-miterlimit:10;" d="M 208.585938 135.867188 L 227.191406 118.015625 "/>
<path style="fill:none;stroke-width:1.2;stroke-linecap:butt;stroke-linejoin:miter;stroke:rgb(0%,0%,0%);stroke-opacity:1;stroke-miterlimit:10;" d="M 183.824219 128.675781 L 177.667969 103.636719 "/>
<path style="fill:none;stroke-width:1;stroke-linecap:butt;stroke-linejoin:miter;stroke:rgb(0%,0%,0%);stroke-opacity:1;stroke-miterlimit:10;" d="M 183.824219 128.675781 L 183.824219 128.675781 M 186.316406 127.007812 L 185.59375 126.253906 M 188.808594 125.339844 L 187.363281 123.832031 M 191.300781 123.667969 L 189.136719 121.414062 M 193.792969 122 L 190.90625 118.992188 M 196.289062 120.332031 L 192.679688 116.570312 M 198.78125 118.664062 L 194.449219 114.148438 M 201.273438 116.992188 L 196.21875 111.726562 M 203.765625 115.324219 L 197.992188 109.304688 M 205.578125 114.109375 L 199.28125 107.542969 "/>
<path style="fill:none;stroke-width:1.2;stroke-linecap:butt;stroke-linejoin:miter;stroke:rgb(0%,0%,0%);stroke-opacity:1;stroke-miterlimit:10;" d="M 177.667969 103.636719 L 152.90625 96.449219 "/>
<path style="fill:none;stroke-width:1.2;stroke-linecap:butt;stroke-linejoin:miter;stroke:rgb(0%,0%,0%);stroke-opacity:1;stroke-miterlimit:10;" d="M 227.191406 118.015625 L 223.6875 92.46875 "/>
<path style="fill:none;stroke-width:1.2;stroke-linecap:butt;stroke-linejoin:miter;stroke:rgb(0%,0%,0%);stroke-opacity:1;stroke-miterlimit:10;" d="M 232.851562 114.636719 L 230.046875 94.199219 "/>
<path style="fill:none;stroke-width:1.2;stroke-linecap:butt;stroke-linejoin:miter;stroke:rgb(0%,0%,0%);stroke-opacity:1;stroke-miterlimit:10;" d="M 252.570312 122.574219 L 227.191406 118.015625 "/>
<path style="fill:none;stroke-width:1.2;stroke-linecap:butt;stroke-linejoin:miter;stroke:rgb(0%,0%,0%);stroke-opacity:1;stroke-miterlimit:10;" d="M 223.6875 92.46875 L 235.292969 86.855469 "/>
<path style="fill:none;stroke-width:1.2;stroke-linecap:butt;stroke-linejoin:miter;stroke:rgb(100%,0%,0%);stroke-opacity:1;stroke-miterlimit:10;" d="M 235.292969 86.855469 L 246.898438 81.242188 "/>
<path style="fill:none;stroke-width:1.2;stroke-linecap:butt;stroke-linejoin:miter;stroke:rgb(100%,0%,0%);stroke-opacity:1;stroke-miterlimit:10;" d="M 246.898438 81.242188 L 255.824219 90.546875 "/>
<path style="fill:none;stroke-width:1.2;stroke-linecap:butt;stroke-linejoin:miter;stroke:rgb(0%,0%,0%);stroke-opacity:1;stroke-miterlimit:10;" d="M 255.824219 90.546875 L 264.75 99.847656 "/>
<path style=" stroke:none;fill-rule:nonzero;fill:rgb(100%,100%,100%);fill-opacity:1;" d="M 242.898438 74.742188 L 251.898438 74.742188 L 251.898438 87.742188 L 242.898438 87.742188 Z M 242.898438 74.742188 "/>
<g style="fill:rgb(100%,0%,0%);fill-opacity:1;">
  <use xlink:href="#glyph0-1" x="242.898438" y="84.643555"/>
</g>
<path style="fill:none;stroke-width:1.2;stroke-linecap:butt;stroke-linejoin:miter;stroke:rgb(0%,0%,0%);stroke-opacity:1;stroke-miterlimit:10;" d="M 264.75 99.847656 L 252.570312 122.574219 "/>
<path style="fill:none;stroke-width:1.2;stroke-linecap:butt;stroke-linejoin:miter;stroke:rgb(0%,0%,0%);stroke-opacity:1;stroke-miterlimit:10;" d="M 258.183594 99.257812 L 248.441406 117.4375 "/>
</g>
</svg>

<svg xmlns="http://www.w3.org/2000/svg" xmlns:xlink="http://www.w3.org/1999/xlink" width="300pt" height="300pt" viewBox="0 0 300 300"><defs><symbol overflow="visible"><path d="M.547 1.938V-7.75h5.5v9.688zm.625-.61h4.266v-8.47H1.171zm0 0"/></symbol><symbol overflow="visible" id="a"><path d="M4.328-7.28c-.78 0-1.406.296-1.875.89-.46.585-.687 1.382-.687 2.39 0 1.012.226 1.813.687 2.406.47.586 1.094.875 1.875.875.79 0 1.414-.288 1.875-.874.457-.593.688-1.394.688-2.406 0-1.008-.23-1.805-.687-2.39-.46-.594-1.086-.89-1.875-.89zm0-.892c1.125 0 2.024.383 2.703 1.14C7.708-6.28 8.048-5.27 8.048-4c0 1.262-.34 2.273-1.016 3.03C6.353-.22 5.454.157 4.33.157S2.3-.22 1.625-.97c-.668-.75-1-1.757-1-3.03 0-1.27.332-2.28 1-3.03.676-.76 1.578-1.142 2.703-1.142zm0 0"/></symbol></defs><g><path fill="#fff" d="M0 0h300v300H0z"/><path d="M115.55 225.117l-6.155-25.04M110.242 197.164L97.86 193.57" stroke-width="1.2" stroke="#000" stroke-miterlimit="10" fill="none"/><path d="M97.86 193.57l-12.38-3.593" stroke-width="1.2" stroke="#f00" stroke-miterlimit="10" fill="none"/><path d="M108.55 202.992l-12.382-3.594" stroke-width="1.2" stroke="#000" stroke-miterlimit="10" fill="none"/><path d="M96.168 199.398l-12.38-3.597" stroke-width="1.2" stroke="#f00" stroke-miterlimit="10" fill="none"/><path d="M109.395 200.078l9.304-8.926" stroke-width="1.2" stroke="#000" stroke-miterlimit="10" fill="none"/><path d="M118.7 191.152l9.304-8.925" stroke-width="1.2" stroke="#f00" stroke-miterlimit="10" fill="none"/><path d="M75.633 186.39h9v13h-9zm0 0" fill="#fff"/><use xlink:href="#a" x="75.633" y="196.292" fill="#f00"/><path d="M128.004 182.227l-3.078-12.52" stroke-width="1.2" stroke="#f00" stroke-miterlimit="10" fill="none"/><path d="M124.926 169.707l-3.078-12.52" stroke-width="1.2" stroke="#000" stroke-miterlimit="10" fill="none"/><path d="M124.004 175.727h9v13h-9zm0 0" fill="#fff"/><use xlink:href="#a" x="124.004" y="185.628" fill="#f00"/><path d="M121.848 157.188L97.086 150M140.453 139.34l-18.605 17.847M97.086 150l-6.156-25.04M90.93 124.96l18.605-17.85M66.168 117.773l24.762 7.188M109.535 107.11l-6.152-25.04M109.535 107.11l24.762 7.19" stroke-width="1.2" stroke="#000" stroke-miterlimit="10" fill="none"/><path d="M109.535 107.11l21.758-14.567-6.3-6.566zm0 0"/><path d="M103.383 82.07l-24.766-7.187M99.215 87.18l-19.813-5.75M78.617 74.883l-18.605 17.85M60.86 89.82l-12.383-3.593" stroke-width="1.2" stroke="#000" stroke-miterlimit="10" fill="none"/><path d="M48.477 86.227l-12.38-3.594" stroke-width="1.2" stroke="#f00" stroke-miterlimit="10" fill="none"/><path d="M59.168 95.645L46.785 92.05" stroke-width="1.2" stroke="#000" stroke-miterlimit="10" fill="none"/><path d="M46.785 92.05l-12.383-3.593" stroke-width="1.2" stroke="#f00" stroke-miterlimit="10" fill="none"/><path d="M60.012 92.734l6.156 25.04" stroke-width="1.2" stroke="#000" stroke-miterlimit="10" fill="none"/><path d="M26.25 79.043h9v13h-9zm0 0" fill="#fff"/><use xlink:href="#a" x="26.25" y="88.944" fill="#f00"/><path d="M66.168 117.773l-2.78 25.633M66.168 117.773l-25.727 1.71M134.297 114.3l6.156 25.04M152.906 96.45l-18.61 17.85M140.453 139.34l24.762 7.187" stroke-width="1.2" stroke="#000" stroke-miterlimit="10" fill="none"/><path d="M140.453 139.34l-4.594 13.687 9.097.028zm0 0"/><path d="M165.215 146.527l6.156 25.04" stroke-width="1.2" stroke="#000" stroke-miterlimit="10" fill="none"/><path d="M165.215 146.527m-2.492 1.668l.722.754m-3.215.913l1.446 1.508m-3.938.165l2.164 2.258m-4.656-.59l2.887 3.012m-5.38-1.344l3.61 3.763m-6.105-2.09l4.332 4.512m-6.824-2.844l5.054 5.267m-7.547-3.598l5.774 6.018m-7.586-4.804l6.302 6.566" stroke="#000" stroke-miterlimit="10" fill="none"/><path d="M183.824 128.676l-18.61 17.85M171.37 171.566l-12.378-3.593" stroke-width="1.2" stroke="#000" stroke-miterlimit="10" fill="none"/><path d="M158.992 167.973l-12.383-3.594" stroke-width="1.2" stroke="#f00" stroke-miterlimit="10" fill="none"/><path d="M171.37 171.566l24.763 7.188" stroke-width="1.2" stroke="#000" stroke-miterlimit="10" fill="none"/><path d="M142.61 157.88h9v13h-9zm0 0" fill="#fff"/><use xlink:href="#a" x="142.609" y="167.78" fill="#f00"/><path d="M193.188 179.48l3.078 12.52" stroke-width="1.2" stroke="#000" stroke-miterlimit="10" fill="none"/><path d="M196.266 192l3.078 12.52" stroke-width="1.2" stroke="#f00" stroke-miterlimit="10" fill="none"/><path d="M199.078 178.03l3.078 12.52" stroke-width="1.2" stroke="#000" stroke-miterlimit="10" fill="none"/><path d="M202.156 190.55l3.078 12.52" stroke-width="1.2" stroke="#f00" stroke-miterlimit="10" fill="none"/><path d="M196.133 178.754l9.304-8.926" stroke-width="1.2" stroke="#000" stroke-miterlimit="10" fill="none"/><path d="M205.438 169.828l9.304-8.922" stroke-width="1.2" stroke="#f00" stroke-miterlimit="10" fill="none"/><path d="M198.29 197.293h9v13h-9zm0 0" fill="#fff"/><use xlink:href="#a" x="198.289" y="207.194" fill="#f00"/><path d="M214.742 160.906l-3.078-12.52" stroke-width="1.2" stroke="#f00" stroke-miterlimit="10" fill="none"/><path d="M211.664 148.387l-3.078-12.52" stroke-width="1.2" stroke="#000" stroke-miterlimit="10" fill="none"/><path d="M210.742 154.406h9v13h-9zm0 0" fill="#fff"/><use xlink:href="#a" x="210.742" y="164.308" fill="#f00"/><path d="M208.586 135.867l-24.762-7.19M208.586 135.867l18.605-17.85M183.824 128.676l-6.156-25.04" stroke-width="1.2" stroke="#000" stroke-miterlimit="10" fill="none"/><path d="M183.824 128.676m2.492-1.668l-.722-.754m3.215-.914l-1.447-1.508m3.938-.164l-2.163-2.254m4.656.586l-2.887-3.008m5.383 1.34l-3.61-3.762m6.1 2.094l-4.33-4.516m6.823 2.844l-5.054-5.265m7.546 3.597l-5.774-6.02m7.586 4.805l-6.297-6.567" stroke="#000" stroke-miterlimit="10" fill="none"/><path d="M177.668 103.637l-24.762-7.188M227.19 118.016L223.69 92.47M232.852 114.637L230.047 94.2M252.57 122.574l-25.38-4.558M223.688 92.47l11.605-5.615" stroke-width="1.2" stroke="#000" stroke-miterlimit="10" fill="none"/><path d="M235.293 86.855l11.605-5.613M246.898 81.242l8.926 9.305" stroke-width="1.2" stroke="#f00" stroke-miterlimit="10" fill="none"/><path d="M255.824 90.547l8.926 9.3" stroke-width="1.2" stroke="#000" stroke-miterlimit="10" fill="none"/><path d="M242.898 74.742h9v13h-9zm0 0" fill="#fff"/><use xlink:href="#a" x="242.898" y="84.644" fill="#f00"/><path d="M264.75 99.848l-12.18 22.726M258.184 99.258l-9.743 18.18" stroke-width="1.2" stroke="#000" stroke-miterlimit="10" fill="none"/></g></svg>
